static/icons/coins.svg

<svg width="20" height="19" viewBox="0 0 20 19" fill="none" xmlns="http://www.w3.org/2000/svg">
<path d="M6.66626 5.71384C10.4817 5.71384 13.3326 4.20555 13.3326 2.85689C13.3326 1.50836 10.4816 0 6.66626 0C2.85091 0 -1.27948e-05 1.50836 -1.27948e-05 2.85689C-1.27948e-05 4.20555 2.85085 5.71384 6.66626 5.71384ZM6.66626 17.142C7.22314 17.142 7.75914 17.1097 8.26898 17.0507C7.83591 16.4944 7.48207 15.8807 7.21756 15.2272C7.03461 15.2334 6.85104 15.2376 6.66619 15.2376C4.48608 15.2376 2.42146 14.8057 0.852844 14.0213C0.543985 13.8669 0.259762 13.701 -1.27948e-05 13.5253V14.2852C-1.27948e-05 15.6337 2.85085 17.142 6.66626 17.142ZM6.66626 13.3327C6.68581 13.3327 6.70505 13.3323 6.72455 13.3323C6.68498 13.0163 6.66513 12.6981 6.66511 12.3796C6.66511 12.0572 6.68543 11.7394 6.72455 11.4275C6.70505 11.4275 6.68575 11.4282 6.66626 11.4282C4.48614 11.4282 2.42159 10.9962 0.852908 10.2119C0.543985 10.0574 0.259699 9.89152 -7.62939e-05 9.71594V10.4757C-1.27948e-05 11.8243 2.85085 13.3327 6.66626 13.3327ZM6.66626 9.52316C6.85523 9.52316 7.04166 9.51935 7.22575 9.51211C7.51948 8.79206 7.92157 8.12115 8.41807 7.52262C7.83633 7.58668 7.25151 7.6188 6.66626 7.61882C4.48614 7.61882 2.42159 7.18683 0.852908 6.40249C0.543985 6.248 0.259699 6.08214 -7.62939e-05 5.9065V6.66633C-1.27948e-05 8.01493 2.85085 9.52316 6.66626 9.52316ZM9.52372 9.22262C9.10425 9.85247 8.81479 10.5598 8.67232 11.303C8.6043 11.6578 8.57009 12.0183 8.57015 12.3796C8.57015 12.6563 8.59034 12.9283 8.62851 13.1946C8.72045 13.8361 8.92169 14.4571 9.22349 15.0306C9.53344 15.6196 9.9433 16.1503 10.4348 16.5991C11.4513 17.5275 12.8032 18.0945 14.2851 18.0945C17.4363 18.0945 20 15.5308 20 12.3796C20 9.22833 17.4363 6.66468 14.2851 6.66468C13.9594 6.66468 13.6401 6.69249 13.329 6.74507C11.7449 7.01297 10.3804 7.93492 9.52372 9.22262Z" fill="black"/>
</svg>

<svg xmlns="http://www.w3.org/2000/svg" width="20" height="19" fill="none"><path fill="#000" d="M6.666 5.714c3.816 0 6.667-1.508 6.667-2.857C13.333 1.508 10.482 0 6.666 0 2.851 0 0 1.508 0 2.857c0 1.349 2.85 2.857 6.666 2.857Zm0 11.428c.557 0 1.093-.032 1.603-.091a7.627 7.627 0 0 1-1.051-1.824c-.183.006-.367.01-.552.01-2.18 0-4.245-.431-5.813-1.216A7.534 7.534 0 0 1 0 13.525v.76c0 1.349 2.85 2.857 6.666 2.857Zm0-3.81h.059a7.672 7.672 0 0 1 0-1.905l-.059.001c-2.18 0-4.244-.432-5.813-1.216A7.563 7.563 0 0 1 0 9.716v.76c0 1.348 2.85 2.857 6.666 2.857Zm0-3.809c.19 0 .376-.004.56-.01a7.63 7.63 0 0 1 1.192-1.99 16.01 16.01 0 0 1-1.752.096c-2.18 0-4.244-.432-5.813-1.217A7.553 7.553 0 0 1 0 5.907v.76c0 1.348 2.85 2.856 6.666 2.856Zm2.858-.3a5.684 5.684 0 0 0-.895 3.972 5.67 5.67 0 0 0 .594 1.836c.31.589.72 1.12 1.212 1.568a5.693 5.693 0 0 0 3.85 1.495A5.721 5.721 0 0 0 20 12.38a5.721 5.721 0 0 0-6.671-5.635 5.726 5.726 0 0 0-3.805 2.478Z"/></svg>
